packages/ui-icons/svg/Solid/quiz-instructions.svg

<svg viewBox="0 0 1920 1920" xmlns="http://www.w3.org/2000/svg">
    <path d="M1920 332v1257H0V332h1920Zm-689 797H409v113h822v-113Zm275-226H409v113h1097V903Zm-275-226H409v113h822V677Z" fill-rule="evenodd"/>
</svg>

<svg viewBox="0 0 1920 1920" version="1.1" xmlns="http://www.w3.org/2000/svg">
    <path d="M1920,332 L1920,1589 L0,1589 L0,332 L1920,332 Z M1231,1129 L409,1129 L409,1242 L1231,1242 L1231,1129 Z M1506,903 L409,903 L409,1016 L1506,1016 L1506,903 Z M1231,677 L409,677 L409,790 L1231,790 L1231,677 Z" stroke="none" stroke-width="1" fill-rule="evenodd"/>
</svg>
